X:44
T:Mrs. Ferguson of Raith's Strathspey
C:Robert Petrie
S:Petrie's Collection of Strathspey Reels and Country Dances &c., 1790
Z:Steve Wyrick , 6/4/04
N:Petrie's First Collection, page 20
L:1/8
V:1 name = "violin"
V:2 name = "bass" clef=bass middle=d transpose=-24
M:C
R:Strathspey
K:F
[V:1] c/B/|A<FF>A c>dcB|A<Fc>A BGGB|A<FF>A c>dc<A|C<FE<G      AFF:|
[V:2]    z|f2 F2  f2 e2|f2 f2  e2c2|F2 f2  F2 f2 |[f2a2][c2g2]f2F:|
[V:1] c|fcf>g a<fg>f|c>f b/a/g/f/ e<(gg>)a|f<cf>g {fg}afcA|C<FE<G      AFF>c|
[V:2] z|f2a2  f2 b2 |a2  f2       c'2 c2  |f2 a2      f2f2|[f2a2][c2g2]f2z2 |
[V:1] f<cf>g {fg}a<fTg>f|c>f b/a/g/f/ e(gg)b|a<fg<e fdTc>A  |B(dTc>B) AFF|]
[V:2] f2 a2      f2  b2 |a2  f2       c'2c2 |f2 c'2 b2[f2a2]|g2  c2   f2F|]
% The above code was written using Phil Taylor's BarFly abc reader/converter/player program.
% Other abc converters (e.g. abc2ps) may require everything after the word "bass" to be
% deleted in the V:2 header line for correct display of notes the bass clef, or require that
% the M: and K: fields be repeated directly under the V:1 header line to display the meter
% and key signature on both staffs.  Some abc MIDI players (e.g. abc2midi) will not play
% multiple-voiced abc code.  -SW
